lib/svgs/circle-arrow-right-o.svg

<svg xmlns="http://www.w3.org/2000/svg" viewBox="0 0 20 20">
    <path fill="#000" fill-rule="evenodd" d="M10,18 C14.418,18 18,14.418 18,10 C18,5.582 14.418,2 10,2 C5.582,2 2,5.582 2,10 C2,14.418 5.582,18 10,18 L10,18 L10,18 L10,18 L10,18 L10,18 L10,18 Z M10,3.2 C13.75,3.2 16.8,6.25 16.8,10 C16.8,13.75 13.75,16.8 10,16.8 C6.25,16.8 3.2,13.75 3.2,10 C3.2,6.25 6.25,3.2 10,3.2 L10,3.2 L10,3.2 L10,3.2 L10,3.2 L10,3.2 L10,3.2 L10,3.2 Z M6.4852,10.6001 L12.0662,10.6001 L9.7572,12.9091 C9.5232,13.1431 9.5232,13.5231 9.7572,13.7581 C9.9912,13.9921 10.3712,13.9921 10.6062,13.7581 L13.9392,10.4241 C14.1732,10.1901 14.1732,9.8101 13.9392,9.5761 L10.6062,6.2431 C10.4882,6.1261 10.3352,6.0671 10.1812,6.0671 C10.0282,6.0671 9.8742,6.1261 9.7572,6.2431 C9.5232,6.4761 9.5232,6.8571 9.7572,7.0911 L12.0662,9.4001 L6.4852,9.4001 C6.1532,9.4001 5.8852,9.6681 5.8852,10.0001 C5.8852,10.3311 6.1532,10.6001 6.4852,10.6001 L6.4852,10.6001 L6.4852,10.6001 L6.4852,10.6001 L6.4852,10.6001 L6.4852,10.6001 L6.4852,10.6001 Z"/>
</svg>

<svg xmlns="http://www.w3.org/2000/svg" viewBox="0 0 20 20">
    <path fill="#000" fill-rule="evenodd" d="M10 18a8 8 0 1 0 0-16 8 8 0 0 0 0 16m0-14.8c3.75 0 6.8 3.05 6.8 6.8s-3.05 6.8-6.8 6.8-6.8-3.05-6.8-6.8S6.25 3.2 10 3.2m-3.515 7.4h5.581l-2.309 2.31a.601.601 0 0 0 .85.848l3.332-3.334a.6.6 0 0 0 0-.848l-3.333-3.333a.601.601 0 0 0-.849.848l2.31 2.31H6.484a.6.6 0 1 0 0 1.2"/>
</svg>
